svgs/regular/square-user.svg

<svg xmlns="http://www.w3.org/2000/svg" viewBox="0 0 448 512"><!-- Font Awesome Pro 6.0.0-alpha2 by @fontawesome - https://fontawesome.com License - https://fontawesome.com/license (Commercial License) --><path d="M384 32H64C28.654 32 0 60.652 0 96V416C0 451.346 28.654 480 64 480H384C419.346 480 448 451.346 448 416V96C448 60.652 419.346 32 384 32ZM113.607 432C121.041 395.529 153.367 368 192 368H256C294.633 368 326.959 395.529 334.393 432H113.607ZM400 416C400 424.822 392.822 432 384 432H382.387C374.432 368.945 321.213 320 256 320H192C126.789 320 73.568 368.945 65.613 432H64C55.178 432 48 424.822 48 416V96C48 87.178 55.178 80 64 80H384C392.822 80 400 87.178 400 96V416ZM224 112C175.4 112 136 151.396 136 200C136 248.6 175.4 288 224 288C272.604 288 312 248.6 312 200C312 151.396 272.604 112 224 112ZM224 240C201.945 240 184 222.055 184 200C184 177.943 201.945 160 224 160C246.057 160 264 177.943 264 200C264 222.055 246.057 240 224 240Z"/></svg>

<svg xmlns="http://www.w3.org/2000/svg" viewBox="0 0 448 512"><!--! Font Awesome Pro 6.4.0 by @fontawesome - https://fontawesome.com License - https://fontawesome.com/license (Commercial License) Copyright 2023 Fonticons, Inc. --><path d="M384 80c8.8 0 16 7.2 16 16V416c0 8.8-7.2 16-16 16h-1c-7.9-63.1-61.7-112-127-112H192c-65.3 0-119.1 48.9-127 112H64c-8.8 0-16-7.2-16-16V96c0-8.8 7.2-16 16-16H384zM334.4 432H113.6c7.4-36.5 39.7-64 78.4-64h64c38.7 0 71 27.5 78.4 64zM64 32C28.7 32 0 60.7 0 96V416c0 35.3 28.7 64 64 64H384c35.3 0 64-28.7 64-64V96c0-35.3-28.7-64-64-64H64zM224 240a40 40 0 1 1 0-80 40 40 0 1 1 0 80zm-88-40a88 88 0 1 0 176 0 88 88 0 1 0 -176 0z"/></svg>
